packages/gestalt-icons-android/vr-theme/ic_vr_accessibility_gestalt.svg

<svg width="24" height="24" viewBox="0 0 24 24" fill="none" xmlns="http://www.w3.org/2000/svg">
<path d="M12 6C13.3807 6 14.5 4.88071 14.5 3.5C14.5 2.11929 13.3807 1 12 1C10.6193 1 9.5 2.11929 9.5 3.5C9.5 4.88071 10.6193 6 12 6Z" fill="black"/>
<path d="M10.2227 15.2922C10.4725 14.5218 11.1902 14.0001 12 14.0001C12.8099 14.0001 13.5276 14.5218 13.7774 15.2922L16.0257 22.2249L17.9744 21.7752L14.5831 10.1053C14.4056 9.49447 14.837 8.87615 15.4689 8.80318C18.9844 8.39725 21.4674 7.4562 22.4962 6.86832L21.5039 5.13184C20.5111 5.69913 17.0543 7.00008 12 7.00008C6.94577 7.00008 3.48895 5.69913 2.49618 5.13184L1.50391 6.86832C2.53269 7.4562 5.01574 8.39725 8.53117 8.80318C9.1631 8.87615 9.59447 9.49447 9.41696 10.1053L6.02565 21.7752L7.97444 22.2249L10.2227 15.2922Z" fill="black"/>
</svg>

<svg xmlns="http://www.w3.org/2000/svg" width="24" height="24"><path d="M12 6a2.5 2.5 0 1 0 0-5 2.5 2.5 0 0 0 0 5m-1.78 9.3a1.87 1.87 0 0 1 3.56 0l2.25 6.92 1.94-.44-3.39-11.67c-.17-.62.26-1.23.89-1.3 3.51-.41 6-1.35 7.03-1.94l-1-1.74C20.51 5.7 17.05 7 12 7S3.49 5.7 2.5 5.13l-1 1.74c1.03.59 3.52 1.53 7.03 1.93.63.08 1.06.7.89 1.3l-3.4 11.68 1.95.44z"/></svg>
